svgs/thin/face-rolling-eyes.svg

<svg xmlns="http://www.w3.org/2000/svg" viewBox="0 0 512 512"><!--! Font Awesome Pro 6.4.2 by @fontawesome - https://fontawesome.com License - https://fontawesome.com/license (Commercial License) Copyright 2023 Fonticons, Inc. --><path d="M496 256A240 240 0 1 0 16 256a240 240 0 1 0 480 0zM0 256a256 256 0 1 1 512 0A256 256 0 1 1 0 256zM192 376H320c4.4 0 8 3.6 8 8s-3.6 8-8 8H192c-4.4 0-8-3.6-8-8s3.6-8 8-8zm-32-88c35.3 0 64-28.7 64-64c0-20.9-10-39.5-25.6-51.2c1 3.6 1.6 7.3 1.6 11.2c0 22.1-17.9 40-40 40s-40-17.9-40-40c0-3.9 .6-7.6 1.6-11.2C106 184.5 96 203.1 96 224c0 35.3 28.7 64 64 64zM80 224a80 80 0 1 1 160 0A80 80 0 1 1 80 224zm56-40a24 24 0 1 0 48 0 24 24 0 1 0 -48 0zm280 40c0-20.9-10.1-39.5-25.6-51.2c1 3.6 1.6 7.3 1.6 11.2c0 22.1-17.9 40-40 40s-40-17.9-40-40c0-3.9 .6-7.6 1.6-11.2C298 184.5 288 203.1 288 224c0 35.3 28.7 64 64 64s64-28.7 64-64zm-64 80a80 80 0 1 1 0-160 80 80 0 1 1 0 160zm0-144a24 24 0 1 0 0 48 24 24 0 1 0 0-48z"/></svg>

<svg xmlns="http://www.w3.org/2000/svg" viewBox="0 0 512 512"><!--! Font Awesome Pro 6.1.1 by @fontawesome - https://fontawesome.com License - https://fontawesome.com/license (Commercial License) Copyright 2022 Fonticons, Inc. --><path d="M320 376C324.4 376 328 379.6 328 384C328 388.4 324.4 392 320 392H192C187.6 392 184 388.4 184 384C184 379.6 187.6 376 192 376H320zM160 304C115.8 304 80 268.2 80 224C80 179.8 115.8 144 160 144C204.2 144 240 179.8 240 224C240 268.2 204.2 304 160 304zM160 288C195.3 288 224 259.3 224 224C224 203.1 213.1 184.5 198.4 172.8C199.4 176.4 200 180.1 200 184C200 206.1 182.1 224 160 224C137.9 224 120 206.1 120 184C120 180.1 120.6 176.4 121.6 172.8C106 184.5 96 203.1 96 224C96 259.3 124.7 288 160 288zM160 208C173.3 208 184 197.3 184 184C184 170.7 173.3 160 160 160C146.7 160 136 170.7 136 184C136 197.3 146.7 208 160 208zM352 144C396.2 144 432 179.8 432 224C432 268.2 396.2 304 352 304C307.8 304 272 268.2 272 224C272 179.8 307.8 144 352 144zM390.4 172.8C391.4 176.4 392 180.1 392 184C392 206.1 374.1 224 352 224C329.9 224 312 206.1 312 184C312 180.1 312.6 176.4 313.6 172.8C298.1 184.5 288 203.1 288 224C288 259.3 316.7 288 352 288C387.3 288 416 259.3 416 224C416 203.1 405.9 184.5 390.4 172.8zM352 160C338.7 160 328 170.7 328 184C328 197.3 338.7 208 352 208C365.3 208 376 197.3 376 184C376 170.7 365.3 160 352 160zM512 256C512 397.4 397.4 512 256 512C114.6 512 0 397.4 0 256C0 114.6 114.6 0 256 0C397.4 0 512 114.6 512 256zM256 16C123.5 16 16 123.5 16 256C16 388.5 123.5 496 256 496C388.5 496 496 388.5 496 256C496 123.5 388.5 16 256 16z"/></svg>
